X: 1338
T: Mapusane İçinde Yanıyor Gazlar
C: Muzaffer Özden
O: Turkey
F: http://compmusic.upf.edu/node/140
N: ferahnak--turku--duyek--mapusane_icinde--bartin
N: makam= ferahnak
N: form= turku
N: usul= duyek = 8/4
M: 8/4
L: 1/16
K: C ^f ^c  
Q: 1/4=162
%%MIDI tuningsystem comma53
z4 F2 G2 A4 A4  | B2 {c}BA B2 c2 A4 z4  | \
w:  Ma pu sa ne   |  i *  çin *  *  *  de   | 
d2 d4 c2 B4 d4  | c2 d2 B2 c2 A2 G2 F4  | 
w:  ya nı *  yor  gaz  |  lar    | 
z4 F2 G2 A4 A4  | B2 {c}BA B2 c2 A4 z4  | \
w:  Ma pu sa ne   |  i *  çin *  *  *  de   | 
d2 d4 c2 B4 d4  | c3d c2 B2 A4 z4  | 
w:  ya nı *  yor  gaz  |  lar    | 
d4 d4 {d}=c2 B2 A4  | =c2 c4 B2 A2 G2 F4  | \
w:  Bay ram *  dan  *  bay  |  ra ma  da  a  ca nım   | 
A2 A2 GA F2 EF D2 G2 F2  | 
w:  ça lı *  *  *  nır  *  *  saz  | 
F8 z8  | d4 d4 {d}=c2 B2 A4  | =c2 c4 B2 A2 G2 F4  | \
w:  lar    |  Bay ram *  dan  *  bay  |  ra ma  da  a  ca nım   | 
A2 A2 GA F2 EF D2 G2 F2  | 
w:  ça lı *  *  *  nır  *  *  saz  | 
F8 z8  | z4 F2 G2 A4 A4  | B2 {c}BA B2 c2 A4 A4  | \
w:  lar    |  Ki mi nin  an  |  ne *  si  *  *  *  ağ lar   | 
d2 d4 c2 B4 d4  | c2 d2 B2 c2 A2 G2 F4  | 
w:  ki mi *  ne  kız  |  lar    | 
z4 F2 G2 A4 A4  | B2 {c}BA B2 c2 A4 A4  | \
w:  Ki mi nin  an  |  ne *  si  *  *  *  ağ lar   | 
d2 d4 c2 B4 d4  | c3d c2 B2 A4 z4  | 
w:  ki mi *  ne  kız  |  lar    | 
d4 d2 d2 {d}=c2 B2 A2 z2  | A4 =c2 B2 A2 G2 F4  | \
w:  Böy le  de  *  düş *  tüm   |  zın da *  na   | 
A2 A2 GA F2 EF D2 G2 F2  | 
w:  ya nar  ya *  nar_ ağ *  *  la  | 
F8 z8  | d2 d4 d2 =c2 B2 A4  | A4 =c2 B2 A2 G2 F2 z2  | \
w:  rım    |  De mir  de  par *  mak  |  lık tan  *  a  ca nım   | 
A2 A2 GA F2 EF D2 G2 F2  | 
w:  ba kar  dö *  ner_ ağ *  *  la  | 
F8 z8  | z4 F2 G2 A4 A4  | B2 {c}BA B2 c2 A4 z4  | \
w:  rım    |  Ma pu sa ne   |  i *  çin *  *  *  de   | 
d2 d4 c2 B4 d4  | c2 d2 B2 c2 A2 G2 F4  | 
w:  ya nı *  yor  gaz  |  lar    | 
z4 F2 G2 A4 A4  | B2 {c}BA B2 c2 A4 z4  | \
w:  Ma pu sa ne   |  i *  çin *  *  *  de   | 
d2 d4 c2 B4 d4  | c3d c2 B2 A4 z4  | 
w:  ya nı *  yor  gaz  |  lar    | 
d4 d4 {d}=c2 B2 A4  | =c2 c4 B2 A2 G2 F4  | \
w:  Bay ram *  dan  *  bay  |  ra ma  da  a  ca nım   | 
A2 A2 GA F2 EF D2 G2 F2  | 
w:  ça lı *  *  *  nır  *  *  saz  | 
F8 z8  | d4 d4 {d}=c2 B2 A4  | =c2 c4 B2 A2 G2 F4  | \
w:  lar    |  Bay ram *  dan  *  bay  |  ra ma  da  a  ca nım   | 
A2 A2 GA F2 EF D2 G2 F2  | 
w:  ça lı *  *  *  nır  *  *  saz  | 
F8 z8  | z4 F2 G2 A4 A4  | B2 {c}BA B2 c2 A4 A4  | \
w:  lar    |  Ki mi nin  an  |  ne *  si  *  *  *  ağ lar   | 
d2 d4 c2 B4 d4  | c2 d2 B2 c2 A2 G2 F4  | 
w:  ki mi *  ne  kız  |  lar    | 
z4 F2 G2 A4 A4  | B2 {c}BA B2 c2 A4 A4  | \
w:  Ki mi nin  an  |  ne *  si  *  *  *  ağ lar   | 
d2 d4 c2 B4 d4  | c3d c2 B2 A4 z4  | 
w:  ki mi *  ne  kız  |  lar    | 
d4 d2 d2 {d}=c2 B2 A2 z2  | A4 =c2 B2 A2 G2 F4  | \
w:  Böy le  de  *  düş *  tüm   |  zın da *  na   | 
A2 A2 GA F2 EF D2 G2 F2  | 
w:  ya nar  ya *  nar_ ağ *  *  la  | 
F8 z8  | d2 d4 d2 =c2 B2 A4  | A4 =c2 B2 A2 G2 F2 z2  | \
w:  rım    |  De mir  de  par *  mak  |  lık tan  *  a  ca nım   | 
A2 A2 GA F2 EF D2 G2 F2  | 
w:  ba kar  dö *  ner_ ağ *  *  la  | 
F8 z8  | |


